X:120
T:Wounded Hussar, The
S:John Moore's Book 2
Z:Transcribed by Edmund Spriggs 05/2021
%%VWML: Moore1-4494-p93-0
F:http://www.vwml.org/record/Moore2/4494/p93
M:6/8
N:The last bar in the manuscript is partly illegible.
L:1/8
K:Bb
G/F/|DGA B2G/ G/|A/B/ c/B/ A/G/ F G A|B d B c B/A/ G/F/|D G G G2G/F/|
DGA B2A/ G/|A/B/ c/B/ A/G/ F G A|f> e d c A F|DGG !fermata!G2|]
G/G/|B d d d2 c/ B/|A c c c2 f|d> g f g> a b|d g f !fermata!g2 g/a/|
b2 g f e d |d/c/ B/B/ f (F G>) A/ A/|B d B d/c/ B/A/ G/F/|D G/ G !fermata![B2G2]|]

